X:1
T:Aus Meines Herzens Grunde
T:Aus Meines Herzens Grunde
T:Neu Catechismus-Gesangbüchlein, 1598
T:Public Domain Courtesy of the Cyber Hymnal™
C:Neu Catechismus-Gesangbüchlein, 1598
Z:Public Domain
Z:Courtesy of the Cyber Hymnal™
%%score 1 ( 2 3 )
L:1/8
Q:1/4=110
M:6/8
K:F
V:1 treble 
V:2 bass 
V:3 bass 
V:1
 [CF] | [CF]2 [Cc] [CA]2 [=B,F] | [CE]2 [A,F] [CG]2 [CA] | [Cc]2 [FA] [EG][DF][EG] | %4
 [CF]3- [CF]2 [CF] | [CF]2 [Cc] [CA]2 [=B,F] | [CE]2 [A,F] [CG]2 [CA] | [Cc]2 [FA] [FG]2 [EG] | %8
 [CF]3- [CF]2 [FA] | [FA]2 [Gc] [Fc]2 [FA] | [EG]3- [EG]2 [CF] | [FA]2 [EG] [Fc]2 [EG] | %12
 [FA]3 [CF]2 [FA] | [Ec]2 [DB] [CA]2 [=B,F] | [CE]2 [A,F] [CG]2 [CA] | [Cc]2 [FA] [EG][DF][EG] | %16
 [CF]3- [CF]2 |] %17
V:2
 [F,A,] | [F,A,]2 [E,G,] F,2 [D,F,] | [C,G,]2 [D,F,] [C,E,]2 F, | [E,G,]2 [F,C] [C,C]2 [C,B,] | %4
 [F,,A,]3- [F,,A,]2 [F,A,] | [F,A,]2 [E,G,] F,2 [D,F,] | [C,G,]2 [D,F,] [C,E,]2 F, | %7
 [E,G,]2 [F,C] [B,,D]2 (C/B,/) | [F,,A,]3- [F,,A,]2 [F,C] | [F,C]2 [E,C] [F,A,]2 [F,,C] | %10
 [C,C]3- [C,C]2 [F,A,] | [F,C]2 [C,C] [A,,C]2 [C,C] | [F,,C]3 [F,A,]2 [D,F,] | %13
 [C,G,]2 [G,,G,] [A,,F,]2 [D,F,] | [C,G,]2 [D,F,] [C,E,]2 F, | [E,G,]2 [F,C] [C,C]2 [C,B,] | %16
 [F,,A,]3- [F,,A,]2 |] %17
V:3
 x | x3 F,2 x | x5 F, | x6 | x6 | x3 F,2 x | x5 F, | x5 C, | x6 | x6 | x6 | x6 | x6 | x6 | x5 F, | %15
 x6 | x5 |] %17

